!!!OTL: ICH TRINKE TAEGLICH MEIN NEKTARVOLLES GLAESCHEN
!!!ARE: Europa, Mitteleuropa, Deutschland
!!!SCT: F0491
!!!YEM: Copyright 1995, estate of Helmut Schaffrath.
**kern
*ICvox
*Ivox
*M2/4
*k[b-e-a-]
*E-:
{8e-
=1
4b-
8b-
8a-
=2
8a-
8g
8g}
{8b-
=3
8cc
8b-
8a-
8g
=4
8g
8f
8f}
{8b-
=5
4b-
8b-
8a-
=6
8a-
8g
8g}
{8b-
=7
8cc
8b-
8a-
8g
=8
4g
8f
8r}
=9
{8.f
16g
8f
8e-
=10
8d
8f
4b-}
=11
{8.f
16g
8f
8e-
=12
8d
8f
8b-}
{8B-
=13
8e-
8g
8b-
8B-
=14
8e-
8g
8b-}
{8B-
=15
8e-
8g
8b-
8B-
=16
8e-
8g
8b-}
{8B-
=17
8e-
8g
8b-
8B-
=18
8e-
8g
4b-}
=19
{8ee-
16dd
16cc
8b-
8a-
=20
4b-
4B-
=21
2e-}
=22
{8ee-
16dd
16cc
8b-
8cc
=23
4b-
4b-
=24
2e-}
==
!!!AGN: Studenten -, Trink - Lied
!!!ONB: ESAC (Essen Associative Code) Database: FINK
!!!AMT: simple duple
!!!AIN: vox
!!!EED: Helmut Schaffrath
!!!EEV: 1.0
*-
